dist/assets/img/services/vector.svg

<svg width="319" height="319" viewBox="0 0 319 319" fill="none" xmlns="http://www.w3.org/2000/svg">
<path d="M264.076 138.238L290.24 137.883L292.28 288.328L266.116 288.682L264.076 138.238Z" fill="#FF6E40"/>
<path d="M225.45 184.557L251.614 184.203L253.033 288.86L226.869 289.215L225.45 184.557Z" fill="#FF6E40"/>
<path d="M185.76 152.384L211.925 152.03L213.787 289.392L187.623 289.747L185.76 152.384Z" fill="#FF6E40"/>
<path d="M147.046 192.163L173.21 191.808L174.54 289.924L148.376 290.279L147.046 192.163Z" fill="#FF6E40"/>
<path d="M108.065 212.318L134.23 211.963L135.294 290.456L109.13 290.811L108.065 212.318Z" fill="#FF6E40"/>
<path d="M68.6416 199.768L94.8059 199.413L96.0475 290.988L69.8832 291.343L68.6416 199.768Z" fill="#FF6E40"/>
<path d="M29.75 226.464L55.9143 226.11L56.8011 291.52L30.6369 291.875L29.75 226.464Z" fill="#FF6E40"/>
<path d="M263.682 60.3909L224.323 100.832L197.804 75.0228L133.28 141.32L100.131 109.059L33.0267 178.008L51.59 196.075L100.628 145.688L133.777 177.95L198.301 111.653L224.82 137.462L282.246 78.4575L263.682 60.3909Z" fill="#E65100"/>
<path d="M289.084 52.8494L230.214 53.6476L289.882 111.719L289.084 52.8494Z" fill="#E65100"/>
</svg>

<svg width="319" height="319" fill="none" xmlns="http://www.w3.org/2000/svg"><path d="M264.076 138.238l26.164-.355 2.04 150.445-26.164.354-2.04-150.444zm-38.626 46.319l26.164-.354 1.419 104.657-26.164.355-1.419-104.658zm-39.69-32.173l26.165-.354 1.862 137.362-26.164.355-1.863-137.363zm-38.714 39.779l26.164-.355 1.33 98.116-26.164.355-1.33-98.116zm-38.981 20.155l26.165-.355 1.064 78.493-26.164.355-1.065-78.493zm-39.423-12.55l26.164-.355 1.242 91.575-26.165.355-1.241-91.575zM29.75 226.464l26.164-.354.887 65.41-26.164.355-.887-65.411z" fill="#FF6E40"/><path d="M263.682 60.39l-39.359 40.442-26.519-25.81-64.524 66.298-33.149-32.261-67.104 68.949 18.563 18.067 49.038-50.387 33.149 32.262 64.524-66.297 26.519 25.809 57.426-59.004-18.564-18.067z" fill="#E65100"/><path d="M289.084 52.85l-58.87.798 59.668 58.071-.798-58.87z" fill="#E65100"/></svg>
